storage/app/icons/phosphoricons/regular/command.svg

<svg xmlns="http://www.w3.org/2000/svg" fill="currentColor" viewBox="0 0 256 256"><path d="M180 144h-20v-32h20a36 36 0 1 0-36-36v20h-32V76a36 36 0 1 0-36 36h20v32H76a36 36 0 1 0 36 36v-20h32v20a36 36 0 1 0 36-36m-20-68a20 20 0 1 1 20 20h-20ZM56 76a20 20 0 0 1 40 0v20H76a20 20 0 0 1-20-20m40 104a20 20 0 1 1-20-20h20Zm16-68h32v32h-32Zm68 88a20 20 0 0 1-20-20v-20h20a20 20 0 0 1 0 40"/></svg>

<svg xmlns="http://www.w3.org/2000/svg" viewBox="0 0 256 256" fill="currentColor"><path d="M180,144H160V112h20a36,36,0,1,0-36-36V96H112V76a36,36,0,1,0-36,36H96v32H76a36,36,0,1,0,36,36V160h32v20a36,36,0,1,0,36-36ZM160,76a20,20,0,1,1,20,20H160ZM56,76a20,20,0,0,1,40,0V96H76A20,20,0,0,1,56,76ZM96,180a20,20,0,1,1-20-20H96Zm16-68h32v32H112Zm68,88a20,20,0,0,1-20-20V160h20a20,20,0,0,1,0,40Z"/></svg>
